X: 39
T:SOUS LA FENETRE
M:3/8
L:1/8
Q:90
C:trad. Bresse
K:Cm
G|c2 e| dc=B|c2d|e2d|fed|cde|1dc=B| c3-|-c2:|2dc=B|c3-|-c3||:eee|e2 f|g2
 _a|gfe|dcd|efg|gfe|d3|fed|c=BG|c2d| e2d|fed|c de|dc=B|c3:||
